lib/flags/gr-greece.svg

<svg xmlns="http://www.w3.org/2000/svg" fill="none" aria-hidden="true" viewBox="0 0 42 30"><g id="Country=GR - Greece, Size=sm (36x24)" filter="url(#filter0_dd_91_27954)"><g clip-path="url(#clip0_91_27954)"><g id="flag"><mask id="mask0_91_27954" width="36" height="24" x="3" y="2" maskUnits="userSpaceOnUse" style="mask-type:alpha"><rect id="mask" width="36" height="24" x="3" y="2" fill="white"/></mask><g mask="url(#mask0_91_27954)"><g id="contents"><path id="bottom" fill="#F7FCFF" fill-rule="evenodd" d="M3 2H39V26H3V2Z" clip-rule="evenodd"/><path id="Combined Shape" fill="#4564F9" fill-rule="evenodd" d="M3 7.5H39V10.4568H3V7.5ZM3 12.8151H39V15.7719H3V12.8151ZM39 17.9432H3V20.9H39V17.9432Z" clip-rule="evenodd"/><path id="lines" fill="#4564F9" fill-rule="evenodd" d="M3 2H39V5H3V2Z" clip-rule="evenodd"/><rect id="lines_2" width="36" height="3" x="3" y="23" fill="#4564F9"/><path id="square" fill="#4564F9" fill-rule="evenodd" d="M3 2H19.875V15.8H3V2Z" clip-rule="evenodd"/><path id="cross" fill="#F7FCFF" fill-rule="evenodd" d="M9.75 2H13.125V7.50386H19.875V10.4387H13.125V16.5H9.75V10.4387H3V7.50386H9.75V2Z" clip-rule="evenodd"/></g></g></g></g></g><defs><filter id="filter0_dd_91_27954" width="42" height="30" x="0" y="0" color-interpolation-filters="sRGB" filterUnits="userSpaceOnUse"><feFlood flood-opacity="0" result="BackgroundImageFix"/><feColorMatrix in="SourceAlpha" result="hardAlpha" values="0 0 0 0 0 0 0 0 0 0 0 0 0 0 0 0 0 0 127 0"/><feOffset dy="1"/><feGaussianBlur stdDeviation="1"/><feColorMatrix values="0 0 0 0 0.0627451 0 0 0 0 0.0941176 0 0 0 0 0.156863 0 0 0 0.06 0"/><feBlend in2="BackgroundImageFix" result="effect1_dropShadow_91_27954"/><feColorMatrix in="SourceAlpha" result="hardAlpha" values="0 0 0 0 0 0 0 0 0 0 0 0 0 0 0 0 0 0 127 0"/><feOffset dy="1"/><feGaussianBlur stdDeviation="1.5"/><feColorMatrix values="0 0 0 0 0.0627451 0 0 0 0 0.0941176 0 0 0 0 0.156863 0 0 0 0.1 0"/><feBlend in2="effect1_dropShadow_91_27954" result="effect2_dropShadow_91_27954"/><feBlend in="SourceGraphic" in2="effect2_dropShadow_91_27954" result="shape"/></filter><clipPath id="clip0_91_27954"><rect width="36" height="24" x="3" y="2" fill="white" rx="2"/></clipPath></defs></svg>

<svg xmlns="http://www.w3.org/2000/svg" fill="none" aria-hidden="true" viewBox="0 0 42 30"><g filter="url(#a)"><g clip-path="url(#b)"><mask id="c" width="36" height="24" x="3" y="2" maskUnits="userSpaceOnUse" style="mask-type:alpha"><path fill="#fff" d="M3 2h36v24H3z"/></mask><g mask="url(#c)"><path fill="#F7FCFF" fill-rule="evenodd" d="M3 2h36v24H3V2Z" clip-rule="evenodd"/><path fill="#4564F9" fill-rule="evenodd" d="M3 7.5h36v2.957H3V7.5Zm0 5.315h36v2.957H3v-2.957Zm36 5.128H3V20.9h36v-2.957ZM3 2h36v3H3V2Z" clip-rule="evenodd"/><path fill="#4564F9" d="M3 23h36v3H3z"/><path fill="#4564F9" fill-rule="evenodd" d="M3 2h16.875v13.8H3V2Z" clip-rule="evenodd"/><path fill="#F7FCFF" fill-rule="evenodd" d="M9.75 2h3.375v5.504h6.75v2.935h-6.75V16.5H9.75v-6.061H3V7.504h6.75V2Z" clip-rule="evenodd"/></g></g></g><defs><clipPath id="b"><rect width="36" height="24" x="3" y="2" fill="#fff" rx="2"/></clipPath><filter id="a" width="42" height="30" x="0" y="0" color-interpolation-filters="sRGB" filterUnits="userSpaceOnUse"><feFlood flood-opacity="0" result="BackgroundImageFix"/><feColorMatrix in="SourceAlpha" result="hardAlpha" values="0 0 0 0 0 0 0 0 0 0 0 0 0 0 0 0 0 0 127 0"/><feOffset dy="1"/><feGaussianBlur stdDeviation="1"/><feColorMatrix values="0 0 0 0 0.0627451 0 0 0 0 0.0941176 0 0 0 0 0.156863 0 0 0 0.06 0"/><feBlend in2="BackgroundImageFix" result="effect1_dropShadow_91_27954"/><feColorMatrix in="SourceAlpha" result="hardAlpha" values="0 0 0 0 0 0 0 0 0 0 0 0 0 0 0 0 0 0 127 0"/><feOffset dy="1"/><feGaussianBlur stdDeviation="1.5"/><feColorMatrix values="0 0 0 0 0.0627451 0 0 0 0 0.0941176 0 0 0 0 0.156863 0 0 0 0.1 0"/><feBlend in2="effect1_dropShadow_91_27954" result="effect2_dropShadow_91_27954"/><feBlend in="SourceGraphic" in2="effect2_dropShadow_91_27954" result="shape"/></filter></defs></svg>
